X:1
T:Title
%%score { ( 1 3 ) | ( 2 4 ) }
L:1/8
M:6/8
K:A
V:1 treble nm="Grand Piano"
V:3 treble 
V:2 bass 
V:4 bass 
V:1
 z3 z2[Q:1/4=90] [CE] | [CA][CA][CA] [Ec][DB][CA] | [DB][DA][DF] .[CE]3 | GGG GFG | %4
 [DB]3 [CA]2 [CE] | [CA][CA][CA] [Ec][DB][CA] | [DB][DA][DF] .[CE]3 | %7
 [Ec][Ec][Ec] [EB][B,EG][G,E] |[M:5/8] [B,G]2 F E2 |[M:1/8] E |[M:3/4] [Ec][CE] [Ec][Fd] [DF][Fd] | %11
 [Ec][CE] [Ec] [EB]2 [EB] | [Ec][CE] [Ec][Fd] [DF][Fd] |[M:5/8] [Ec][CE][Ec] [EB]2 |[M:1/8] [DE] | %15
[M:3/4] [CA][CA] [CA][Ec] [DB][CA] | [DB][DA] [DF] .[CE]3 | [Ee][Ec] [EB][FA] [Fd][Ec] | %18
[M:5/8] [Ec]2 [DB] [CA]2 |] %19
V:2
 z3 z2 [A,,A,] | [A,,A,][A,,A,][A,,A,] [A,,A,][A,,A,][A,,A,] | [A,,F,][A,,F,][A,,A,] .[A,,A,]3 | %3
 [E,B,D][E,B,D][E,B,D] [E,B,D][E,B,D][E,B,D] | [A,,A,]3 [A,,A,]2 [A,,A,] | %5
 [A,,A,][A,,A,][A,,A,] [A,,A,][A,,A,][A,,A,] | [A,,F,][A,,F,][A,,A,] .[A,,A,]3 | %7
 [A,,A,][A,,A,][A,,A,] [B,,G,]B,,B,, |[M:5/8] z2 A, [E,G,]2 |[M:1/8] E, | %10
[M:3/4] [A,,A,][A,,A,] [A,,A,][A,,A,] [A,,A,][A,,A,] | [A,,A,][A,,A,] [A,,A,] [E,G,]2 [E,G,] | %12
 [A,,A,][A,,A,] [A,,A,][A,,A,] [A,,A,][A,,A,] |[M:5/8] [A,,A,][A,,A,][A,,A,] [E,G,]2 | %14
[M:1/8] [E,B,] |[M:3/4] [A,,A,][A,,A,] [A,,A,][A,,A,] [A,,A,][A,,A,] | %16
 [A,,F,][A,,F,] [A,,A,] .[A,,A,]3 | [C,A,][C,A,] [C,A,][D,A,] [D,A,][D,A,] | %18
[M:5/8] [E,G,]3 [A,,A,]2 |] %19
V:3
 x6 | x6 | x6 | x6 | x6 | x6 | x6 | x6 |[M:5/8] ^D3 z2 |[M:1/8] x |[M:3/4] x6 | x6 | x6 | %13
[M:5/8] x5 |[M:1/8] x |[M:3/4] x6 | x6 | x6 |[M:5/8] x5 |] %19
V:4
 x6 | x6 | x6 | x6 | x6 | x6 | x6 | x6 |[M:5/8] B,,3 z2 |[M:1/8] x |[M:3/4] x6 | x6 | x6 | %13
[M:5/8] x5 |[M:1/8] x |[M:3/4] x6 | x6 | x6 |[M:5/8] x5 |] %19

